!!!OTL: Der Morgenstern ist aufgegangen.
!!!ARE: Europa, Mitteleuropa, Deutschland
!!!SCT: A0108
!!!TXL: @@GMH
!!!YEM: Copyright 1995, estate of Helmut Schaffrath.
**kern	**text
*M4/4	*
*met(c)	*
*clefC1	*
*k[b-]	*
*F:ion	*
=1	=1
!LO:TX:a:t=jon. tr.	!
{2r	.
4r	.
4cc	Der
=1	=1
4cc	Mor-
4a	-gen-
4f	-ſtern
4g/	iſt
=2	=2
8aL	auf-
8b-J	.
2cc	.
4a	-ge-
=3	=3
2b-	-gan-
2a}	-gen,
=4	=4
{4r	.
4cc	er
2cc	leucht
=5	=5
4a	da-
2g	-her
4f	ʒu
=6	=6
4b-	die-
4g	-ſer
2cc	Stun-
=7	=7
2a	-de,
4r}	.
{4a	hoch
=8	=8
8a	ü-
8a	-ber
8a	Berg
8b-	vnd
4cc	tie-
4cc	fe
=9	=9
4cc	Thal,
8b-L	.
8aJ	.
2g	.
=10	=10
4f	.
8eL	.
8dJ	.
2c}	.
=11	=11
{4r	.
4c	für
4f	Freud
4f	ſingt
=12	=12
4g	uns
4g	der
8aL	lie-
8b-J	.
2cc	.
=13	=13
.	.
4a	-ben
4a	En-
8g\L	.
8f\J	.
=14	=14
2a	.
2g	-gel
=15	=15
1f/ll}	Schaar.
==	==
!!!GTL: Tage- oder Wächterlieder
!!!AGN: Romanze, Ballade, Lied
!! M. Praetorius, Mus. Sion. VI. 1609 No. 194.
!!!ONB: ESAC (Essen Associative Code) Database: ALTDEU
!!!AMT: simple quadruple
!!!AIN: vox
!!!EED: Helmut Schaffrath
!!!EEV: 1.0
!!!RDF**kern: l = terminal long
!!!AMD: Ionian
!!!URL-scan: https://rosdok.uni-rostock.de/mcrviewer/recordIdentifier/rosdok_ppn738218359/iview2/phys_0276.iview2?x=-2091.770685579196&y=1248.1182033095974&scale=0.2411630558722919&rotation=0&layout=singlePageLayout&logicalDiv=log_0007
!!!ENC: Anna Maria Matuszewska
!!!EEV: 2024/23/02
*-	*-
